X: 5
T: Jimmy Lyons
Z: birlibirdie
S: https://thesession.org/tunes/171#setting12814
R: strathspey
M: 4/4
L: 1/8
K: Gmaj
M: 3/4
|:G>g f>g BG|E>G c>B (3ABA|G>g f>g dG|1 E>G F>A A/B/G:|2 E>G F/G/A B/A/G||
|:d<B B>d e<g|d>B B>d c/B/A|d<B B>d e/d/c|1 (3fed (3cBA (3GBc:|2 (3faf (3def g2B/A/||
M: 6/8
|:Gfg B2G|EcB ABA|Gfg d2G|1 EGF AGB:|2 EGF G>AB/c/||
|:dBB deg|dBd cBA|dBB dec|1 fed cBA/G/:|2 faf g2B||

